X:1
T:Title
%%score ( 1 2 )
L:1/8
Q:1/4=120
M:2/2
K:F
V:1 treble nm="Part_1"
V:2 treble 
V:1
!>(! A,!>)! z (3DDD (3DDD (3DDD | A, z (3DDD A, z (3.DDD :: A8- | ABAG FE F_E | D4 GF_E^C | %5
 (3D-B,^C (3DEF (3AGF ED z3/4 :: D8 | A3 G !tenuto!G4 | GAAA AGGF | G/A/G (3F/G/A/G z F/F/ F>E | %10
 F3/2G/4F/4 _ED D4 | z A A>A AGGF | G/A/G (3F/G/A/G z F F>E | F3/2G/4F/4 _ED D4 | %14
 z D _E3/2!>!DB3/2 x2 | z D _E3/2D A2 A3/2 | z C D>_E G>=E F2 | EF/!^!G/ F/!>!_E/E/D/ D4 f' :: %18
 z D/D/ DD z D/E/ FF | z F/G/ AB c^cdd z :: z z2 !>!.A AB A>G GF | A4 E F2 G | %22
 FE (3:2:2GF/E/ D!>!D/E/ FF x/ | DAAB AGGF | A>G A2 E/E/ F2 G | %25
 [E,G,]4[K:treble+8] FE GF/!>!.E/ !wedge!D!^!D/E/ F/E/F/E/ :| %26
[M:2/4] D D2 E2 F B2 B3 E2 A4 z2 C3 D2 E G2 E2 F4 D2 D2 |][M:2/4][K:treble] z A,3/2 DE/ | %28
 FD3/2 EF | GF3/2 ED/ | (E4 | A,)A,3/2 ^CD/ | E^C3/2 DE | FE3/2 D^C/ | (D4 | A,)^F3/2 GA/ | B2 A2 | %37
 c2 z !>!B2 | A2 z x | d2 c>B | Ad c>B | AG F>E | D2 A,2 | [A,D]A A>A | d>c c=B | cB B/A/B/A/ | %46
 z B/A/ B/A/A/G/ | G2 FE | FEG-F | EG!ppp!GA | B2 AG | AG G/zF/z/G/F/ | z E z x | EDD^C | %54
 F/E/D CB, |!<(! A,!<)!A A>A | d>c c=B | cB B/A/B/A/ | z B/A/ B/A/A/G/ | G2 FE | FEGF | EGGA | %62
 B2 AG | AG G/F/G/F/ | z E F/ED/ | EDD^C | F/E/D A,/DF/ | AA A>^G |: ^GFFE | EDD^C | E>D D2 | %71
 z D F>A | c4 | =B2 G>!^!B | A G2 B, | DA A>^G | z3 ^G>F FE | EDD^C | E>D!>(! D2 | z D F>A!>)! | %80
 c4 | !tenuto!=B2 G>B | A G2 B, | DA A3/2^G3/4 !arpeggio!=B2 G>B |[M:2/4] A4 | %85
[M:3/4] dd/d/ d^c Bc | dd/d/ d^c Bc | dd/d/ d^c Bc | A6 |: GG/G/ G^F _EG | ^FF/F/ F_E DE | %91
 ^F>_E G>F E>D | D_E ^FE GE :| !wedge!D3 !>!^C B,C | D6 | x6 | x6 | %97
V:2
 x8 | x8 :: x8 | x8 | x8 | x35/4 :: x8 | x8 | x8 | x8 | x8 | x8 | x8 | x8 | x2 z2 B2 x2 | x8 | x8 | %17
 x9 :: x8 | x9 :: D x9 | x8 | x8 | x8 | x8 | x4[K:treble+8] G, x2 z x4 :|[M:2/4] x37 |] %27
[M:2/4][K:treble] x4 | x9/2 | x4 | x4 | x4 | x9/2 | x4 | x4 | x4 | x4 | x2 z3/2 x3/2 | x2 G>B | %39
 x4 | x4 | x4 | x4 | x4 | x4 | x4 | x4 | x4 | x4 | x4 | x4 | x11/2 | x2 F/ED/ | x4 | x4 | x4 | x4 | %57
 x4 | x4 | x4 | x4 | x4 | x4 | x4 | x4 | x4 | x4 | x4 |: x4 | x4 | x4 | x4 | x4 | x4 | x4 | x4 | %76
 x7 | x4 | x4 | x4 | x4 | x4 | x4 | x33/4 |[M:2/4] x4 |[M:3/4] x6 | x6 | x6 | x6 |: x6 | x6 | x6 | %92
 x6 :| x6 | x6 | x6 | x6 | %97

